X:1
T:Title
%%score { ( 1 3 ) | ( 2 4 ) }
L:1/8
M:6/8
K:G
V:1 treble nm="Grand Piano"
V:3 treble 
V:2 bass 
V:4 bass 
V:1
 z3 z2[Q:1/4=100] [DB] | [Bd][GB][DB] [Ec][Ge]>[A^d] | [Bd]3 [GB]2 [DB] | %3
 [Ec]>[Gc][Gc] [Ac][Gc][Ec] | [DB]3- [DB]2 [Dd] | [Ac]>[^GB][Ac] [ce][Bd][Ac] | [GB]3 [Bd]2 [Bd] | %7
 [B^c]>[Ac][Ec] [Ec][^Dc][Ec] | [Ac]6[K:bass][K:treble] | [Ac]>[^GB][Ac] [Ec][Fc][Ac] | %10
 [GB]3 [DB]2 [DB] | [Ec][Ec][Fc] [Gc][Ac][_Be] | [B^d]3- [Bd]2 [c=d] | [Bd][Ac][GB] [DB][GB][=Fd] | %14
 [Ec]3 [ce]2 [ce] | [Ae]2 [A^c]/[Ec]/ [Bc]<[Ac][Ec] | [Ac]6 | B<Ac B3 | G<FE ^D2 [Bd] | %19
 [_B^c]2 [Bc]/[Bc]/ [=Bd]<[Bd][A=c] |[M:5/8] B z z z2 |] %21
V:2
 z3 z2 [G,,G,] | [G,,G,][G,,D,][G,,G,] [C,G,][C,G,]>[C,G,] | [G,,G,]3 [G,,D,]2 [G,,G,] | %3
 [C,G,]>[C,E,][C,E,] [C,E,][C,E,][C,G,] | [G,,G,]3- [G,,G,]2 [B,,G,] | %5
 [D,F,]>[D,=F,][D,^F,] [D,F,][D,F,][D,F,] | [G,,D,]3 [G,,G,]2 [G,,G,] | %7
 [A,,G,]>[A,,G,][A,,G,] [A,,G,][A,,G,][A,,G,] | F,6 | [D,F,]>[D,=F,][D,^F,] D,D,[D,F,] | %10
 [G,,D,]3 [G,,G,]2 [G,,G,] | [C,G,][C,G,][C,A,] [C,E,][C,E,][C,E,] | [B,,F,]3- [B,,F,]2 [A,,F,] | %13
 [G,,G,][G,,D,][G,,D,] [G,,G,][G,,G,][B,,G,] | [C,G,]3 [C,G,]2 [C,G,] | %15
 [^C,G,]2 [A,,G,]/[A,,G,]/ [A,,G,]<[A,,G,][A,,G,] | [D,F,]6 | G,<F,E, D,3 | %18
 G,,<A,,_B,, =B,,2 [D,G,] | [^D,G,]2 [D,G,]/[D,G,]/ [=D,G,]<[D,G,][D,F,] |[M:5/8] D, z z z2 |] %21
V:3
 x6 | x6 | x6 | x6 | x6 | x6 | x6 | x6 | z2[K:bass] ^D, =D,2[K:treble] [Ac] | x6 | x6 | x6 | x6 | %13
 x6 | x6 | x6 | x6 | x6 | x6 | x6 |[M:5/8] G-[G-_B][G-c] [G=B]2 |] %21
V:4
 x6 | x6 | x6 | x6 | x6 | x6 | x6 | x6 | .D,3 z2 [D,F,] | x6 | x6 | x6 | x6 | x6 | x6 | x6 | x6 | %17
 x6 | x6 | x6 |[M:5/8] G,,-[G,,-E,][G,,-^D,] [G,,=D,]2 |] %21

